svgs/solid/buildings.svg

<svg xmlns="http://www.w3.org/2000/svg" viewBox="0 0 512 512"><!--! Font Awesome Pro 6.0.0-alpha3 by @fontawesome - https://fontawesome.com License - https://fontawesome.com/license (Commercial License) --><path d="M464 0h-224C213.5 0 192 21.49 192 48v80.01L48 128c-26.51 0-48 21.49-48 48v304c0 17.67 14.33 32 32 32L480 512c17.67 0 32-14.33 32-32V48C512 21.49 490.5 0 464 0zM128 336c0 8.836-7.164 16-16 16h-32c-8.836 0-16-7.164-16-16v-32c0-8.838 7.164-16 16-16h32c8.836 0 16 7.162 16 16V336zM128 240c0 8.836-7.164 16-16 16h-32c-8.836 0-16-7.164-16-16v-32c0-8.838 7.164-16 16-16h32c8.836 0 16 7.162 16 16V240zM320 304c0 8.836-7.164 16-16 16h-32C263.2 320 256 312.8 256 304v-32C256 263.2 263.2 256 272 256h32C312.8 256 320 263.2 320 272V304zM320 208C320 216.8 312.8 224 304 224h-32C263.2 224 256 216.8 256 208v-32C256 167.2 263.2 160 272 160h32C312.8 160 320 167.2 320 176V208zM320 112C320 120.8 312.8 128 304 128h-32C263.2 128 256 120.8 256 112v-32C256 71.16 263.2 64 272 64h32C312.8 64 320 71.16 320 80V112zM448 304c0 8.836-7.164 16-16 16h-32C391.2 320 384 312.8 384 304v-32C384 263.2 391.2 256 400 256h32C440.8 256 448 263.2 448 272V304zM448 208C448 216.8 440.8 224 432 224h-32C391.2 224 384 216.8 384 208v-32C384 167.2 391.2 160 400 160h32C440.8 160 448 167.2 448 176V208zM448 112C448 120.8 440.8 128 432 128h-32C391.2 128 384 120.8 384 112v-32C384 71.16 391.2 64 400 64h32C440.8 64 448 71.16 448 80V112z"/></svg>

<svg xmlns="http://www.w3.org/2000/svg" viewBox="0 0 512 512"><!--! Font Awesome Pro 6.4.2 by @fontawesome - https://fontawesome.com License - https://fontawesome.com/license (Commercial License) Copyright 2023 Fonticons, Inc. --><path d="M256 0c-35.3 0-64 28.7-64 64v64H64c-35.3 0-64 28.7-64 64V448c0 35.3 28.7 64 64 64H256 448c35.3 0 64-28.7 64-64V192 64c0-35.3-28.7-64-64-64H256zM64 304c0-8.8 7.2-16 16-16h32c8.8 0 16 7.2 16 16v32c0 8.8-7.2 16-16 16H80c-8.8 0-16-7.2-16-16V304zm208 16c-8.8 0-16-7.2-16-16V272c0-8.8 7.2-16 16-16h32c8.8 0 16 7.2 16 16v32c0 8.8-7.2 16-16 16H272zm112-16V272c0-8.8 7.2-16 16-16h32c8.8 0 16 7.2 16 16v32c0 8.8-7.2 16-16 16H400c-8.8 0-16-7.2-16-16zM80 192h32c8.8 0 16 7.2 16 16v32c0 8.8-7.2 16-16 16H80c-8.8 0-16-7.2-16-16V208c0-8.8 7.2-16 16-16zM256 80c0-8.8 7.2-16 16-16h32c8.8 0 16 7.2 16 16v32c0 8.8-7.2 16-16 16H272c-8.8 0-16-7.2-16-16V80zM400 64h32c8.8 0 16 7.2 16 16v32c0 8.8-7.2 16-16 16H400c-8.8 0-16-7.2-16-16V80c0-8.8 7.2-16 16-16zM256 208V176c0-8.8 7.2-16 16-16h32c8.8 0 16 7.2 16 16v32c0 8.8-7.2 16-16 16H272c-8.8 0-16-7.2-16-16zm144 16c-8.8 0-16-7.2-16-16V176c0-8.8 7.2-16 16-16h32c8.8 0 16 7.2 16 16v32c0 8.8-7.2 16-16 16H400z"/></svg>
